SVG_Azure_Grouped/Data/Data Collection Data source.svg

<?xml version="1.0" encoding="UTF-8" standalone="no"?>
<!-- Generated by Microsoft Visio, SVG Export Data Collection Data source.svg Page-1 -->

<svg
   xmlns:dc="http://purl.org/dc/elements/1.1/"
   xmlns:cc="http://creativecommons.org/ns#"
   xmlns:rdf="http://www.w3.org/1999/02/22-rdf-syntax-ns#"
   xmlns:svg="http://www.w3.org/2000/svg"
   xmlns="http://www.w3.org/2000/svg"
   xmlns:xlink="http://www.w3.org/1999/xlink"
   xmlns:sodipodi="http://sodipodi.sourceforge.net/DTD/sodipodi-0.dtd"
   xmlns:inkscape="http://www.inkscape.org/namespaces/inkscape"
   width="0.78734809in"
   height="0.74800223in"
   viewBox="0 0 56.688971 53.856302"
   xml:space="preserve"
   class="st5"
   version="1.1"
   id="svg80"
   sodipodi:docname="Data Collection Data source.svg"
   style="font-size:12px;overflow:visible;color-interpolation-filters:sRGB;fill:none;fill-rule:evenodd;stroke-linecap:square;stroke-miterlimit:3"
   inkscape:version="0.92.5 (2060ec1f9f, 2020-04-08)"><metadata
   id="metadata84"><rdf:RDF><cc:Work
       rdf:about=""><dc:format>image/svg+xml</dc:format><dc:type
         rdf:resource="http://purl.org/dc/dcmitype/StillImage" /></cc:Work></rdf:RDF></metadata><sodipodi:namedview
   pagecolor="#ffffff"
   bordercolor="#666666"
   borderopacity="1"
   objecttolerance="10"
   gridtolerance="10"
   guidetolerance="10"
   inkscape:pageopacity="0"
   inkscape:pageshadow="2"
   inkscape:window-width="640"
   inkscape:window-height="480"
   id="namedview82"
   showgrid="false"
   inkscape:zoom="1.4523234"
   inkscape:cx="37.795237"
   inkscape:cy="35.889642"
   inkscape:window-x="0"
   inkscape:window-y="0"
   inkscape:window-maximized="0"
   inkscape:current-layer="svg80" />
	<style
   type="text/css"
   id="style2">
	<![CDATA[
		.st1 {fill:#5ea0ef;stroke:none;stroke-linecap:butt;stroke-width:34}
		.st2 {fill:#83b9f9;stroke:none;stroke-linecap:butt;stroke-width:34}
		.st3 {fill:url(#grad0-10);stroke:none;stroke-linecap:butt;stroke-width:34}
		.st4 {fill:#ffffff;stroke:none;stroke-linecap:butt;stroke-width:34}
		.st5 {fill:none;fill-rule:evenodd;font-size:12px;overflow:visible;stroke-linecap:square;stroke-miterlimit:3}
	]]>
	</style>

	<defs
   id="Patterns_And_Gradients">
		<linearGradient
   id="grad0-10"
   x1="0"
   y1="0"
   x2="1"
   y2="0"
   gradientTransform="rotate(90,0.5,0.5)">
			<stop
   offset="0"
   stop-color="#5ea0ef"
   stop-opacity="1"
   id="stop4" />
			<stop
   offset="1"
   stop-color="#0078d4"
   stop-opacity="1"
   id="stop6" />
		</linearGradient>
	<linearGradient
   inkscape:collect="always"
   xlink:href="#grad0-10"
   id="linearGradient4594"
   gradientTransform="scale(1.3449187,0.74353938)"
   x1="-5.9490388e-06"
   y1="141.60649"
   x2="22.298746"
   y2="141.60649"
   gradientUnits="userSpaceOnUse" /><linearGradient
   inkscape:collect="always"
   xlink:href="#grad0-10"
   id="linearGradient4596"
   gradientTransform="scale(1.3449189,0.74353928)"
   x1="-5.949038e-06"
   y1="141.60651"
   x2="22.298749"
   y2="141.60651"
   gradientUnits="userSpaceOnUse" /></defs>
	<g
   id="g78"
   transform="translate(-34.000261,-33.998)">
		<title
   id="title10">Page-1</title>
		<g
   id="group19518-1"
   transform="translate(34,-34.0157)">
			<title
   id="title12">Data Collection Data source.19518</title>
			<g
   id="group19519-2">
				<title
   id="title14">Sheet.19519</title>
				<g
   id="shape19520-3"
   transform="translate(7.38898,-5.1712)">
					<title
   id="title16">Sheet.19520</title>
					<path
   d="M 4.58,91.8 V 83.75 A 0.894488,0.89769 0 0 1 5.474488,82.85547 L 22.72,82.86 v -4.5 H 1.79 A 1.78898,1.79538 -180 0 0 0,80.16 V 91.92 Z M 0,107.9 v 12.18 a 1.78898,1.79538 -180 0 0 1.79,1.79 h 20.83 v -4.49 H 5.47 A 0.894488,0.89769 0 0 1 4.575512,116.48547 L 4.58,107.78 Z"
   class="st1"
   id="path18"
   inkscape:connector-curvature="0"
   style="fill:#5ea0ef;stroke:none;stroke-width:34;stroke-linecap:butt" />
				</g>
				<g
   id="shape19521-5"
   transform="translate(0,-16.5693)">
					<title
   id="title21">Sheet.19521</title>
					<path
   d="m 0,103.17 v 16.85 a 1.85512,1.86176 -180 0 0 1.86,1.85 h 16.78 a 1.85197,1.8586 -180 0 0 1.86,-1.84 V 103.17 A 1.85512,1.86176 -180 0 0 18.66,101.3 H 1.86 A 1.85512,1.86176 -180 0 0 0,103.16 Z m 15.81,1.61 a 1.22835,1.23274 0 0 1 1.23,1.24 v 11.16 a 1.2315,1.2359 0 0 1 -1.23,1.24 H 4.67 A 1.2315,1.2359 0 0 1 3.45,117.18 V 106 a 1.2315,1.2359 0 0 1 1.22,-1.23 z"
   class="st2"
   id="path23"
   inkscape:connector-curvature="0"
   style="fill:#83b9f9;stroke:none;stroke-width:34;stroke-linecap:butt" />
				</g>
				<g
   id="shape19522-7"
   transform="translate(26.6992)">
					<title
   id="title26">Sheet.19522</title>
					<path
   d="M 28.5,105.29 H 1.49 A 1.48976,1.4951 -180 0 0 0,106.79 v 13.59 a 1.48976,1.4951 -180 0 0 1.49,1.49 H 28.5 a 1.48976,1.4951 -180 0 0 1.49,-1.49 V 106.79 A 1.48976,1.4951 -180 0 0 28.5,105.3 Z"
   class="st3"
   id="path28"
   inkscape:connector-curvature="0"
   style="fill:url(#linearGradient4594);stroke:none;stroke-width:34;stroke-linecap:butt" />
				</g>
				<g
   id="shape19523-11"
   transform="translate(26.6992,-37.2763)">
					<title
   id="title31">Sheet.19523</title>
					<path
   d="M 28.5,105.29 H 1.49 A 1.48976,1.4951 -180 0 0 0,106.79 v 13.59 a 1.48976,1.4951 -180 0 0 1.49,1.49 H 28.5 a 1.48976,1.4951 -180 0 0 1.49,-1.48 v -13.6 a 1.48976,1.4951 -180 0 0 -1.49,-1.5 z"
   class="st3"
   id="path33"
   inkscape:connector-curvature="0"
   style="fill:url(#linearGradient4596);stroke:none;stroke-width:34;stroke-linecap:butt" />
				</g>
				<g
   id="shape19524-14"
   transform="translate(32.1701,-4.25139)">
					<title
   id="title36">Sheet.19524</title>
					<path
   d="m 0,121.52 a 0.349614,0.350866 -180 0 0 0.349606,0.35086 L 4.45,121.87 a 0.349614,0.350866 -180 0 0 0.349606,-0.35086 L 4.8,118.47 A 0.349614,0.350866 -180 0 0 4.450394,118.11914 L 0.35,118.12 a 0.349614,0.350866 -180 0 0 -0.349606,0.35086 z"
   class="st4"
   id="path38"
   inkscape:connector-curvature="0"
   style="fill:#ffffff;stroke:none;stroke-width:34;stroke-linecap:butt" />
				</g>
				<g
   id="shape19525-16"
   transform="translate(39.1748,-4.25139)">
					<title
   id="title41">Sheet.19525</title>
					<path
   d="m 0,121.46 a 0.415758,0.417246 -180 0 0 0.415748,0.41724 L 4.38,121.87 a 0.415758,0.417246 -180 0 0 0.415748,-0.41724 L 4.8,116.91 A 0.415758,0.417246 -180 0 0 4.384252,116.49276 L 0.42,116.49 a 0.415758,0.417246 -180 0 0 -0.415748,0.41724 z"
   class="st4"
   id="path43"
   inkscape:connector-curvature="0"
   style="fill:#ffffff;stroke:none;stroke-width:34;stroke-linecap:butt" />
				</g>
				<g
   id="shape19526-18"
   transform="translate(46.1795,-4.25139)">
					<title
   id="title46">Sheet.19526</title>
					<path
   d="m 0,121.37 a 0.507098,0.508914 -180 0 0 0.507087,0.5089 L 4.29,121.87 a 0.507098,0.508914 -180 0 0 0.507087,-0.5089 L 4.8,114.46 A 0.507098,0.508914 -180 0 0 4.292913,113.9511 L 0.51,113.95 a 0.507098,0.508914 -180 0 0 -0.507087,0.5089 z"
   class="st4"
   id="path48"
   inkscape:connector-curvature="0"
   style="fill:#ffffff;stroke:none;stroke-width:34;stroke-linecap:butt" />
				</g>
				<g
   id="shape19527-20"
   transform="translate(36.7402,-44.8055)">
					<title
   id="title51">Sheet.19527</title>
					<ellipse
   cx="1.77323"
   cy="120.094"
   rx="1.77323"
   ry="1.77958"
   class="st4"
   id="ellipse53"
   style="fill:#ffffff;stroke:none;stroke-width:34;stroke-linecap:butt" />
				</g>
				<g
   id="shape19528-22"
   transform="translate(42.9354,-40.9145)">
					<title
   id="title56">Sheet.19528</title>
					<ellipse
   cx="1.77323"
   cy="120.094"
   rx="1.77323"
   ry="1.77958"
   class="st4"
   id="ellipse58"
   style="fill:#ffffff;stroke:none;stroke-width:34;stroke-linecap:butt" />
				</g>
				<g
   id="shape19529-24"
   transform="translate(47.8583,-47.6693)">
					<title
   id="title61">Sheet.19529</title>
					<ellipse
   cx="1.77323"
   cy="120.094"
   rx="1.77323"
   ry="1.77958"
   class="st4"
   id="ellipse63"
   style="fill:#ffffff;stroke:none;stroke-width:34;stroke-linecap:butt" />
				</g>
				<g
   id="shape19530-26"
   transform="translate(31.5874,-40.3645)">
					<title
   id="title66">Sheet.19530</title>
					<ellipse
   cx="1.77323"
   cy="120.094"
   rx="1.77323"
   ry="1.77958"
   class="st4"
   id="ellipse68"
   style="fill:#ffffff;stroke:none;stroke-width:34;stroke-linecap:butt" />
				</g>
				<g
   id="shape19531-28"
   transform="translate(32.5134,-41.2432)">
					<title
   id="title71">Sheet.19531</title>
					<path
   d="M 1.06,121.87 0,120.78 l 5.87,-5.71 6.16,4.34 4.81,-6.43 1.21,0.91 -5.69,7.61 -6.34,-4.46 z"
   class="st4"
   id="path73"
   inkscape:connector-curvature="0"
   style="fill:#ffffff;stroke:none;stroke-width:34;stroke-linecap:butt" />
				</g>
			</g>
		</g>
	</g>
</svg>

<?xml version="1.0" encoding="UTF-8" standalone="no"?>
<!DOCTYPE svg PUBLIC "-//W3C//DTD SVG 1.1//EN" "http://www.w3.org/Graphics/SVG/1.1/DTD/svg11.dtd">
<!-- Generated by Microsoft Visio, SVG Export Data Collection Data source.svg Page-1 -->
<svg xmlns="http://www.w3.org/2000/svg" xmlns:xlink="http://www.w3.org/1999/xlink" xmlns:ev="http://www.w3.org/2001/xml-events"
		width="1.73185in" height="1.69269in" viewBox="0 0 124.693 121.874" xml:space="preserve" color-interpolation-filters="sRGB"
		class="st5">
	<style type="text/css">
	<![CDATA[
		.st1 {fill:#5ea0ef;stroke:none;stroke-linecap:butt;stroke-width:34}
		.st2 {fill:#83b9f9;stroke:none;stroke-linecap:butt;stroke-width:34}
		.st3 {fill:url(#grad0-10);stroke:none;stroke-linecap:butt;stroke-width:34}
		.st4 {fill:#ffffff;stroke:none;stroke-linecap:butt;stroke-width:34}
		.st5 {fill:none;fill-rule:evenodd;font-size:12px;overflow:visible;stroke-linecap:square;stroke-miterlimit:3}
	]]>
	</style>

	<defs id="Patterns_And_Gradients">
		<linearGradient id="grad0-10" x1="0" y1="0" x2="1" y2="0" gradientTransform="rotate(90 0.5 0.5)">
			<stop offset="0" stop-color="#5ea0ef" stop-opacity="1"/>
			<stop offset="1" stop-color="#0078d4" stop-opacity="1"/>
		</linearGradient>
	</defs>
	<g>
		<title>Page-1</title>
		<g id="group19069-1" transform="translate(34,-34.0157)">
			<title>Data Collection Data source.19069</title>
			<g id="group19070-2">
				<title>Sheet.19070</title>
				<g id="shape19071-3" transform="translate(7.38898,-5.1712)">
					<title>Sheet.19071</title>
					<path d="M4.58 91.8 L4.58 83.75 a0.894488 0.89769 0 0 1 0.894488 -0.89453 L22.72 82.86 L22.72 78.36 L1.79 78.36
								 A1.78898 1.79538 -180 0 0 -0 80.16 L0 91.92 L4.58 91.8 ZM0 107.9 L0 120.08 A1.78898 1.79538 -180
								 0 0 1.79 121.87 L22.62 121.87 L22.62 117.38 L5.47 117.38 a0.894488 0.89769 0 0 1 -0.894488 -0.89453
								 L4.58 107.78 L0 107.9 Z" class="st1"/>
				</g>
				<g id="shape19072-5" transform="translate(-2.8777E-13,-16.5693)">
					<title>Sheet.19072</title>
					<path d="M0 103.17 L0 120.02 A1.85512 1.86176 -180 0 0 1.86 121.87 L18.64 121.87 A1.85197 1.8586 -180 0 0 20.5
								 120.03 L20.5 103.17 A1.85512 1.86176 -180 0 0 18.66 101.3 L1.86 101.3 A1.85512 1.86176 -180 0 0
								 0 103.16 L0 103.17 ZM15.81 104.78 A1.22835 1.23274 0 0 1 17.04 106.02 L17.04 117.18 A1.2315 1.2359
								 0 0 1 15.81 118.42 L4.67 118.42 A1.2315 1.2359 0 0 1 3.45 117.18 L3.45 106 A1.2315 1.2359 0 0 1
								 4.67 104.77 L15.81 104.78 Z" class="st2"/>
				</g>
				<g id="shape19073-7" transform="translate(26.6992,-2.55795E-13)">
					<title>Sheet.19073</title>
					<path d="M28.5 105.29 L1.49 105.29 A1.48976 1.4951 -180 0 0 0 106.79 L0 120.38 A1.48976 1.4951 -180 0 0 1.49
								 121.87 L28.5 121.87 A1.48976 1.4951 -180 0 0 29.99 120.38 L29.99 106.79 A1.48976 1.4951 -180 0 0
								 28.5 105.3 L28.5 105.29 Z" class="st3"/>
				</g>
				<g id="shape19074-11" transform="translate(26.6992,-37.2763)">
					<title>Sheet.19074</title>
					<path d="M28.5 105.29 L1.49 105.29 A1.48976 1.4951 -180 0 0 0 106.79 L0 120.38 A1.48976 1.4951 -180 0 0 1.49
								 121.87 L28.5 121.87 A1.48976 1.4951 -180 0 0 29.99 120.39 L29.99 106.79 A1.48976 1.4951 -180 0 0
								 28.5 105.29 L28.5 105.29 Z" class="st3"/>
				</g>
				<g id="shape19075-14" transform="translate(32.1701,-4.25139)">
					<title>Sheet.19075</title>
					<path d="M0 121.52 a0.349614 0.350866 -180 0 0 0.349606 0.350858 L4.45 121.87 a0.349614 0.350866 -180 0 0 0.349606
								 -0.350858 L4.8 118.47 a0.349614 0.350866 -180 0 0 -0.349606 -0.350858 L0.35 118.12 a0.349614 0.350866
								 -180 0 0 -0.349606 0.350858 L0 121.52 Z" class="st4"/>
				</g>
				<g id="shape19076-16" transform="translate(39.1748,-4.25139)">
					<title>Sheet.19076</title>
					<path d="M0 121.46 a0.415758 0.417246 -180 0 0 0.415748 0.417236 L4.38 121.87 a0.415758 0.417246 -180 0 0 0.415748
								 -0.417236 L4.8 116.91 a0.415758 0.417246 -180 0 0 -0.415748 -0.417236 L0.42 116.49 a0.415758 0.417246
								 -180 0 0 -0.415748 0.417236 L0 121.46 Z" class="st4"/>
				</g>
				<g id="shape19077-18" transform="translate(46.1795,-4.25139)">
					<title>Sheet.19077</title>
					<path d="M0 121.37 a0.507098 0.508914 -180 0 0 0.507087 0.508902 L4.29 121.87 a0.507098 0.508914 -180 0 0 0.507087
								 -0.508902 L4.8 114.46 a0.507098 0.508914 -180 0 0 -0.507087 -0.508902 L0.51 113.95 a0.507098 0.508914
								 -180 0 0 -0.507087 0.508902 L0 121.37 Z" class="st4"/>
				</g>
				<g id="shape19078-20" transform="translate(36.7402,-44.8055)">
					<title>Sheet.19078</title>
					<ellipse cx="1.77323" cy="120.094" rx="1.77323" ry="1.77958" class="st4"/>
				</g>
				<g id="shape19079-22" transform="translate(42.9354,-40.9145)">
					<title>Sheet.19079</title>
					<ellipse cx="1.77323" cy="120.094" rx="1.77323" ry="1.77958" class="st4"/>
				</g>
				<g id="shape19080-24" transform="translate(47.8583,-47.6693)">
					<title>Sheet.19080</title>
					<ellipse cx="1.77323" cy="120.094" rx="1.77323" ry="1.77958" class="st4"/>
				</g>
				<g id="shape19081-26" transform="translate(31.5874,-40.3645)">
					<title>Sheet.19081</title>
					<ellipse cx="1.77323" cy="120.094" rx="1.77323" ry="1.77958" class="st4"/>
				</g>
				<g id="shape19082-28" transform="translate(32.5134,-41.2432)">
					<title>Sheet.19082</title>
					<path d="M1.06 121.87 L0 120.78 L5.87 115.07 L12.03 119.41 L16.84 112.98 L18.05 113.89 L12.36 121.5 L6.02 117.04
								 L1.06 121.87 Z" class="st4"/>
				</g>
			</g>
		</g>
	</g>
</svg>
